X:1
T:Title
%%score { ( 1 3 5 ) | ( 2 4 ) }
L:1/8
M:3/4
K:E
V:1 treble nm="Grand Piano"
V:3 treble 
V:5 treble 
V:2 bass 
V:4 bass 
V:1
 z2 z2[Q:1/4=100] [GB]>[FA] | G3 F G>[FA] | [=Gc]2 [GB]2 [E^G]>[DF] | [CE]2- (3[CE]DE G>F | %4
[M:2/4] [DF]4 |[M:1/4] [DB]>[DA] |[M:3/4] G3 F G>[FA] | [=Gc]2 [^GB]2 [GB]>c | d3 B ^A>c | %9
[M:2/4] [B,DB]4 |[M:12/8] z3 [Ge]6- [Ge]2 z | z3 [^GB]6- [GB]2 z | z3 [AB]6- [AB] z z | %13
 z3 [EG]6- [EG]2 z | z3 [Ge]6- [Ge]2 z | z3 [^GB]6- [GB]2 z | z3 [AB]6- [AB] z z | %17
[M:9/8] z3 E6-[Q:1/4=99][Q:1/4=97][Q:1/4=96][Q:1/4=94][Q:1/4=93][Q:1/4=91][Q:1/4=90][Q:1/4=88][Q:1/4=87][Q:1/4=85][Q:1/4=84][Q:1/4=82][Q:1/4=81][Q:1/4=79][Q:1/4=78][Q:1/4=76] | %18
 E3 z3 z3 |] %19
V:2
 z2 z2 [E,B,]>[E,B,] | [E,B,E]3 [E,A,E] [E,B,E]>[E,B,] | [E,^A,]2 [E,B,]2 [E,B,]>[B,,A,] | %3
 [C,G,]2 (3z ^B,C [F,^A,E]>[F,A,E] |[M:2/4] [B,,B,]4 |[M:1/4] [B,,F,]>[B,,B,] | %6
[M:3/4] [E,B,E]3 [E,A,E] [E,B,E]>[E,B,] | [E,^A,]2 [E,B,]2 [E,B,]>[G,B,E] | %8
 [F,B,F]3 [F,DF] [F,CF]>[F,^A,E] |[M:2/4] B,,4 | %10
[M:12/8] z[K:treble] c[K:bass]D, [E,B,]2 E, E,2 E, z2 G | %11
 [E,^A,]2 [E,A,] [E,B,]2 E, E,2 E, E,2 E, | z B,E, F,2 F, F,2 F, F,DE | z EB,, E,3 E,2 E, .E,3 | %14
 z[K:treble] c[K:bass]D, [E,B,]2 E, E,2 E, z2 G | [E,^A,]2 [E,A,] [E,B,]2 E, E,2 E, E,2 E, | %16
 z B,E, F,2 F, F,2 F, F,B,,B,, |[M:9/8] B,,B,,B,, z2 G, A,B,A, | G,3 z3 z3 |] %19
V:3
 x6 | x6 | x6 | z2 z B, z2 |[M:2/4] x4 |[M:1/4] x2 |[M:3/4] x6 | x6 | x6 |[M:2/4] x4 | %10
[M:12/8] .[B,AB]2 [B,AB] z2 B, B,2 B, z2 B | [=Gd]2 [Gc] z2 B, G,2 B, E2 [E^GB] | %12
 [EGB]G[EGc] D2 D D2 D DFG | [FA]G[B,DF] B,3 B,2 B, .B,3 | .[B,AB]2 [B,AB] z2 B, B,2 B, z2 B | %15
 [=Gd]2 [Gc] z2 B, G,2 B, E2 [E^GB] | [EGB]G[EGc] D2 D D2 D D[B,DF][B,EG] | %17
[M:9/8] [B,FA][B,EG][A,DF] G,2 B, CDC | B,3 z3 z3 |] %19
V:4
 x6 | x6 | x6 | z2 z C, z2 |[M:2/4] x4 |[M:1/4] x2 |[M:3/4] x6 | x6 | x6 |[M:2/4] x4 | %10
[M:12/8] .D,3[K:treble][K:bass] z3 z3 E,3 | x12 | .E,3 z3 z6 | .[B,,B,]3 z3 z6 | %14
 .D,3[K:treble][K:bass] z3 z3 E,3 | x12 | .E,3 z3 z6 |[M:9/8] z3 E,6- | E,3 z3 z3 |] %19
V:5
 x6 | x6 | x6 | x6 |[M:2/4] x4 |[M:1/4] x2 |[M:3/4] x6 | x6 | x6 |[M:2/4] x4 |[M:12/8] z6 z3 B,3 | %11
 x12 | x12 | x12 | z6 z3 B,3 | x12 | x12 |[M:9/8] x9 | x9 |] %19

